**harm	**harte	**timestamp	**phrase	**leadinstrument	**kern
*M4/4	*M4/4	*	*	*	*
*B-:	*B-:	*	*	*	*B-:
1r;	N	0	.	r	1r;
=1	=1	=1	=1	=1	=1
*>A_intro	*>A_intro	*>A_intro	*>A_intro	*>A_intro	*>A_intro
1im7	B-:min7	1.372	newline	organ	1B- 1dd- 1ff 1aa
=2	=2	=2	=2	=2	=2
1im7	B-:min7	3.793	.	organ	1B- 1dd- 1ff 1aa
=3	=3	=3	=3	=3	=3
1im7	B-:min7	6.214	.	organ	1B- 1dd- 1ff 1aa
=4	=4	=4	=4	=4	=4
1im7	B-:min7	8.634	.	organ	1B- 1dd- 1ff 1aa
=5	=5	=5	=5	=5	=5
1im7	B-:min7	11.055	newline	saxophone	1B- 1dd- 1ff 1aa
=6	=6	=6	=6	=6	=6
1im7	B-:min7	13.468	.	saxophone	1B- 1dd- 1ff 1aa
=7	=7	=7	=7	=7	=7
1im7	B-:min7	15.881	.	saxophone	1B- 1dd- 1ff 1aa
=8	=8	=8	=8	=8	=8
1im7	B-:min7	18.294	.	saxophone	1B- 1dd- 1ff 1aa
=9	=9	=9	=9	=9	=9
1im7	B-:min7	20.707	newline	saxophone organ	1B- 1dd- 1ff 1aa
=10	=10	=10	=10	=10	=10
1im7	B-:min7	23.184	.	saxophone organ	1B- 1dd- 1ff 1aa
=11	=11	=11	=11	=11	=11
1im7	B-:min7	25.662	.	saxophone organ	1B- 1dd- 1ff 1aa
=12	=12	=12	=12	=12	=12
1im7	B-:min7	28.14	.	saxophone organ	1B- 1dd- 1ff 1aa
=13	=13	=13	=13	=13	=13
1im7	B-:1	30.617	.	saxophone organ	1B- 1dd- 1ff 1aa
.	D-:1	31.237	.	saxophone organ	.
.	E-:1	31.856	.	saxophone organ	.
.	E:1	32.475	.	saxophone organ	.
=14	=14	=14	=14	=14	=14
*>B_maintheme	*>B_maintheme	*>B_maintheme	*>B_maintheme	*>B_maintheme	*>B_maintheme
2vo7	F:hdim7	33.095	->newline	organ	2F 2a- 2cc- 2ee-
2Im7	B-:7(b9)	34.335	.	organ	2B- 2dd 2ff 2aa
=15	=15	=15	=15	=15	=15
2ivm7	E-:min7	35.575	.	organ	2E- 2g- 2b- 2dd
2ivm7d	E-:min7/b7	36.815	.	organ	2e- 2g- 2b- 2D
=16	=16	=16	=16	=16	=16
1II7	C:9(#11)	38.055	.	organ	1C 1e 1g 1b-
=17	=17	=17	=17	=17	=17
2-II7	C-:maj7	40.534	.	organ	2C- 2e- 2g- 2b-
2V7	F:7	41.774	.	organ	2F 2a 2cc 2ee-
=18	=18	=18	=18	=18	=18
1-VI7	G-:maj9	43.014	newline	organ	1G- 1b- 1dd- 1ff
=19	=19	=19	=19	=19	=19
1-IIm7	C-:7(#11)	45.46	.	organ	1C- 1e- 1g- 1b-
=20	=20	=20	=20	=20	=20
1-VI7	G-:maj9	47.906	newline	organ	1G- 1b- 1dd- 1ff
=21	=21	=21	=21	=21	=21
1-IIm7	C-:7(#11)	50.357	.	organ	1C- 1e- 1g- 1b-
=22	=22	=22	=22	=22	=22
1vo7	F:hdim7	52.808	newline	organ	1F 1a- 1cc- 1ee-
=23	=23	=23	=23	=23	=23
1vo7	F:hdim7	55.276	.	organ	1F 1a- 1cc- 1ee-
=24	=24	=24	=24	=24	=24
1Im7	B-:7(#9)	57.744	.	organ	1B- 1dd 1ff 1aa
=25	=25	=25	=25	=25	=25
1Im7	B-:7(#9)	60.212	.	organ	1B- 1dd 1ff 1aa
=26	=26	=26	=26	=26	=26
*>B2_secondarytheme	*>B2_secondarytheme	*>B2_secondarytheme	*>B2_secondarytheme	*>B2_secondarytheme	*>B2_secondarytheme
2vo7	F:hdim7	62.68	newline	organ	2F 2a- 2cc- 2ee-
2Im7	B-:7(b9)	63.904	.	organ	2B- 2dd 2ff 2aa
=27	=27	=27	=27	=27	=27
2ivm7	E-:min7	65.128	.	organ	2E- 2g- 2b- 2dd
2ivm7d	E-:min7/b7	66.352	.	organ	2e- 2g- 2b- 2D
=28	=28	=28	=28	=28	=28
1II7	C:9(#11)	67.576	.	organ	1C 1e 1g 1b-
=29	=29	=29	=29	=29	=29
2-II7	C-:maj7	70.024	.	organ	2C- 2e- 2g- 2b-
2V7	F:7	71.248	.	organ	2F 2a 2cc 2ee-
=30	=30	=30	=30	=30	=30
1-VI7	G-:maj9	72.472	newline	organ	1G- 1b- 1dd- 1ff
=31	=31	=31	=31	=31	=31
1-IIm7	C-:7(#11)	74.937	.	organ	1C- 1e- 1g- 1b-
=32	=32	=32	=32	=32	=32
1-VI7	G-:maj9	77.402	newline	organ	1G- 1b- 1dd- 1ff
=33	=33	=33	=33	=33	=33
1-IIm7	C-:7(#11)	79.871	.	organ	1C- 1e- 1g- 1b-
=34	=34	=34	=34	=34	=34
1vo7	F:hdim7	82.339	newline	organ	1F 1a- 1cc- 1ee-
=35	=35	=35	=35	=35	=35
1Im7	B-:7(#9)	84.779	.	organ	1B- 1dd 1ff 1aa
=36	=36	=36	=36	=36	=36
1im7	B-:min7	87.219	.	organ	1B- 1dd- 1ff 1aa
=37	=37	=37	=37	=37	=37
1im7	B-:min7	89.658	.	organ	1B- 1dd- 1ff 1aa
=38	=38	=38	=38	=38	=38
1im7	B-:min7	92.098	.	organ	1B- 1dd- 1ff 1aa
=39	=39	=39	=39	=39	=39
1im7	B-:min7	94.537	.	organ	1B- 1dd- 1ff 1aa
=40	=40	=40	=40	=40	=40
2IVm7	E-:7	96.977	newline	saxophone	2E- 2g 2b- 2dd
2III7	D:7	98.195	.	saxophone	2D 2f# 2a 2cc
=41	=41	=41	=41	=41	=41
2-IIIm7	D-:7	99.414	.	saxophone	2D- 2f 2a- 2cc
2iio7	C:hdim7	100.632	.	saxophone	2C 2e- 2g- 2b-
=42	=42	=42	=42	=42	=42
1V7	F:9	101.851	.	saxophone	1F 1a 1cc 1ee-
=43	=43	=43	=43	=43	=43
2Im7	B-:7	104.288	newline	saxophone	2B- 2dd 2ff 2aa
2I	B-:sus4(b7,9)	105.512	.	saxophone	2B- 2dd 2ff
=44	=44	=44	=44	=44	=44
2IV	E-:maj	106.736	.	saxophone	2E- 2g 2b-
2I	B-:sus4(b7,9)	107.96	.	saxophone	2B- 2dd 2ff
=45	=45	=45	=45	=45	=45
2IV	E-:maj	109.185	.	saxophone	2E- 2g 2b-
2I	B-:sus4(b7,9)	110.409	.	saxophone	2B- 2dd 2ff
=46	=46	=46	=46	=46	=46
2IV	E-:maj	111.633	.	saxophone	2E- 2g 2b-
2I	B-:sus4(b7,9)	112.857	.	saxophone	2B- 2dd 2ff
=47	=47	=47	=47	=47	=47
1IV	E-:maj	114.081	.	saxophone	1E- 1g 1b-
=48	=48	=48	=48	=48	=48
*>B3_maintheme	*>B3_maintheme	*>B3_maintheme	*>B3_maintheme	*>B3_maintheme	*>B3_maintheme
2vo7	F:hdim7	116.53	newline	saxophone	2F 2a- 2cc- 2ee-
2Im7	B-:7(b9)	117.775	.	saxophone	2B- 2dd 2ff 2aa
=49	=49	=49	=49	=49	=49
2ivm7	E-:min7	119.02	.	saxophone	2E- 2g- 2b- 2dd
2ivm7d	E-:min7/b7	120.264	.	saxophone	2e- 2g- 2b- 2D
=50	=50	=50	=50	=50	=50
1II7	C:9(#11)	121.509	.	saxophone	1C 1e 1g 1b-
=51	=51	=51	=51	=51	=51
2-II7	C-:maj7	123.999	.	saxophone	2C- 2e- 2g- 2b-
2V7	F:7	125.244	.	saxophone	2F 2a 2cc 2ee-
=52	=52	=52	=52	=52	=52
1-VI7	G-:maj9	126.488	newline	saxophone	1G- 1b- 1dd- 1ff
=53	=53	=53	=53	=53	=53
1-IIm7	C-:7(#11)	128.934	.	saxophone	1C- 1e- 1g- 1b-
=54	=54	=54	=54	=54	=54
1-VI7	G-:maj9	131.38	newline	saxophone	1G- 1b- 1dd- 1ff
=55	=55	=55	=55	=55	=55
1-IIm7	C-:7(#11)	133.856	.	saxophone	1C- 1e- 1g- 1b-
=56	=56	=56	=56	=56	=56
1vo7	F:hdim7	136.331	newline	saxophone	1F 1a- 1cc- 1ee-
=57	=57	=57	=57	=57	=57
1Im7	B-:7(#9)	138.789	.	saxophone	1B- 1dd 1ff 1aa
=58	=58	=58	=58	=58	=58
1im7	B-:min7	141.246	.	saxophone	1B- 1dd- 1ff 1aa
=59	=59	=59	=59	=59	=59
1im7	B-:min7	143.704	.	saxophone	1B- 1dd- 1ff 1aa
=60	=60	=60	=60	=60	=60
*>C_solo	*>C_solo	*>C_solo	*>C_solo	*>C_solo	*>C_solo
1im7	B-:min7	146.162	newline	organ	1B- 1dd- 1ff 1aa
=61	=61	=61	=61	=61	=61
1im7	B-:min7	148.594	.	organ	1B- 1dd- 1ff 1aa
=62	=62	=62	=62	=62	=62
1im7	B-:min7	151.027	.	organ	1B- 1dd- 1ff 1aa
=63	=63	=63	=63	=63	=63
1im7	B-:min7	153.46	.	organ	1B- 1dd- 1ff 1aa
=64	=64	=64	=64	=64	=64
*>_fadeout	*>_fadeout	*>_fadeout	*>_fadeout	*>_fadeout	*>_fadeout
1im7	B-:min7	155.893	newline	saxophone organ	1B- 1dd- 1ff 1aa
=65	=65	=65	=65	=65	=65
1im7	B-:min7	158.267	.	saxophone organ	1B- 1dd- 1ff 1aa
=66	=66	=66	=66	=66	=66
1im7	B-:min7	160.641	.	saxophone organ	1B- 1dd- 1ff 1aa
=67	=67	=67	=67	=67	=67
1im7	B-:min7	163.014	.	saxophone organ	1B- 1dd- 1ff 1aa
=68	=68	=68	=68	=68	=68
1im7	B-:min7	165.388	.	saxophone organ	1B- 1dd- 1ff 1aa
=69	=69	=69	=69	=69	=69
1im7	B-:min7	167.762	.	saxophone organ	1B- 1dd- 1ff 1aa
=70	=70	=70	=70	=70	=70
1im7	B-:min7	170.136	.	saxophone organ	1B- 1dd- 1ff 1aa
=71	=71	=71	=71	=71	=71
1im7	B-:min7	172.51	.	saxophone organ	1B- 1dd- 1ff 1aa
=72	=72	=72	=72	=72	=72
1im7	B-:min7	174.884	.	saxophone organ	1B- 1dd- 1ff 1aa
=73	=73	=73	=73	=73	=73
1im7	B-:min7	177.258	.	saxophone organ	1B- 1dd- 1ff 1aa
=74	=74	=74	=74	=74	=74
1im7	B-:min7	179.632	.	saxophone organ	1B- 1dd- 1ff 1aa
=75	=75	=75	=75	=75	=75
1im7	B-:min7	182.006	.	saxophone organ	1B- 1dd- 1ff 1aa
=76	=76	=76	=76	=76	=76
1im7	B-:min7	184.38	.	saxophone organ	1B- 1dd- 1ff 1aa
=77	=77	=77	=77	=77	=77
1im7	B-:min7	186.754	.	saxophone organ	1B- 1dd- 1ff 1aa
=78	=78	=78	=78	=78	=78
1im7	B-:min7	189.128	.	saxophone organ	1B- 1dd- 1ff 1aa
=79	=79	=79	=79	=79	=79
1im7	B-:min7	191.502	.	saxophone organ	1B- 1dd- 1ff 1aa
=80	=80	=80	=80	=80	=80
1im7	B-:min7	193.876	.	saxophone organ	1B- 1dd- 1ff 1aa
=81	=81	=81	=81	=81	=81
1im7	B-:min7	196.25	.	saxophone organ	1B- 1dd- 1ff 1aa
=82	=82	=82	=82	=82	=82
1im7	B-:min7	198.624	.	saxophone organ	1B- 1dd- 1ff 1aa
=83	=83	=83	=83	=83	=83
1im7	B-:min7	200.998	.	saxophone organ	1B- 1dd- 1ff 1aa
=84	=84	=84	=84	=84	=84
1im7	B-:min7	203.372	.	saxophone organ	1B- 1dd- 1ff 1aa
=85	=85	=85	=85	=85	=85
1im7	B-:min7	205.745	.	saxophone organ	1B- 1dd- 1ff 1aa
=86	=86	=86	=86	=86	=86
1im7	B-:min7	208.119	.	saxophone organ	1B- 1dd- 1ff 1aa
1r;	N	210.493	.	r	1r;
1r;	N	214.272	.	r	1r;
*-	*-	*-	*-	*-	*-
!!!OTL: Theme From Electric Surfboard
!!!COC: Brother Jack McDuff
!!!BillboardChartDate: 1969/12/27
!!!BillboardPeak: 95
!!!BillboardWeeksOnChart: 2
!!!SampleTargetRank: 97
!!!SampleActualRank: 95
!!!SampleID#: 0251
!!!RDF**harmony: **recip + pitch class of root + harmonic quality
!!!RDF**harte: Chris Harte's syntax, used by MIREX
!!!RDF**phrase: newline = linebreak in original McGill transcription
!!!RDF**timestamp: McGill audio timestamp in seconds
!!!RDF**leadinstrument: original McGill primary instrumentation annotation
!!!RDT: 2017/01/12/
!!!ENC: Nathaniel Condit-Schultz
!!!EST: Awating manual error checking and editing.
